src/renderer/assets/icon/restart-default-icon.svg

<?xml version="1.0" encoding="UTF-8"?>
<svg width="22px" height="22px" viewBox="0 0 22 22" version="1.1" xmlns="http://www.w3.org/2000/svg" xmlns:xlink="http://www.w3.org/1999/xlink">
    <!-- Generator: Sketch 53.1 (72631) - https://sketchapp.com -->
    <desc>Created with Sketch.</desc>
    <defs>
        <radialGradient cx="60.435757%" cy="38.5603041%" fx="60.435757%" fy="38.5603041%" r="100%" id="radialGradient-1">
            <stop stop-color="#FFFFFF" stop-opacity="0.16479846" offset="1.95086705%"></stop>
            <stop stop-color="#FFFFFF" stop-opacity="0.42408288" offset="97.1030527%"></stop>
        </radialGradient>
        <radialGradient cx="81.8460892%" cy="79.2345085%" fx="81.8460892%" fy="79.2345085%" r="116.965516%" gradientTransform="translate(0.818461,0.792345),scale(1.000000,0.899228),rotate(-134.406586),translate(-0.818461,-0.792345)" id="radialGradient-2">
            <stop stop-color="#FFFFFF" stop-opacity="0.775928442" offset="0%"></stop>
            <stop stop-color="#FFFFFF" stop-opacity="0.508378623" offset="100%"></stop>
        </radialGradient>
    </defs>
    <g id="Icons/restart-default-icon" stroke="none" stroke-width="1" fill="none" fill-rule="evenodd">
        <circle id="Background" fill-opacity="0.3" fill="url(#radialGradient-1)" cx="11" cy="11" r="11"></circle>
        <path d="M6.16,11.3247903 C6.16,8.6547803 8.32258676,6.48903807 10.9922327,6.48491169 C10.9964554,6.48491169 10.9998786,6.48148849 10.9998786,6.47726575 L10.9998786,5.69907919 C10.9998786,5.45307418 11.2807151,5.31265592 11.4775677,5.46023466 L13.4471856,6.93759976 C13.5223616,6.99395791 13.5666078,7.08242787 13.5666078,7.17638361 C13.5666078,7.27033934 13.5223616,7.35880931 13.4471856,7.41516746 L11.4775677,8.89241119 C11.2807151,9.03998993 10.9998786,8.89957167 10.9998786,8.65356666 L10.9998786,7.87550146 C10.9998786,7.8712117 10.9964011,7.86773416 10.9921113,7.86773416 C9.10756971,7.8719819 7.57741123,9.38345031 7.54342929,11.2608315 C7.50835507,13.2132156 9.11193882,14.8169207 11.064323,14.781361 C12.8226382,14.7492369 14.2598963,13.4050681 14.4384933,11.6864588 C14.4384933,11.6864588 14.4384933,11.6864588 14.4384933,11.6864588 L14.4384933,11.6864588 C14.4598509,11.4809379 14.6330645,11.3247918 14.8396922,11.3247918 L15.4099718,11.3247521 C15.6370844,11.3247521 15.8211955,11.5088632 15.8211955,11.7359758 C15.8211955,11.748545 15.8206192,11.7611076 15.8194685,11.773624 C15.8194685,11.773624 15.8194685,11.773624 15.8194685,11.773624 C15.5930506,14.2363508 13.5219456,16.1647903 11,16.1647903 C8.32671314,16.1647903 6.16,13.9979558 6.16,11.3247903 Z" id="路径" stroke-opacity="0.168081975" stroke="#FFFFFF" stroke-width="0.5" fill-opacity="0.7" fill="url(#radialGradient-2)" transform="translate(11.000000, 10.782395) scale(-1, 1) translate(-11.000000, -10.782395) "></path>
    </g>
</svg>

<svg width="22" height="22" xmlns="http://www.w3.org/2000/svg">
    <defs>
        <radialGradient cx="60.436%" cy="38.56%" fx="60.436%" fy="38.56%" r="100%" id="a">
            <stop stop-color="#FFF" stop-opacity=".165" offset="1.951%"/>
            <stop stop-color="#FFF" stop-opacity=".424" offset="97.103%"/>
        </radialGradient>
        <radialGradient cx="81.846%" cy="79.235%" fx="81.846%" fy="79.235%" r="116.966%" gradientTransform="matrix(-.69975 -.6424 .7144 -.62923 .825 1.817)" id="b">
            <stop stop-color="#FFF" stop-opacity=".776" offset="0%"/>
            <stop stop-color="#FFF" stop-opacity=".508" offset="100%"/>
        </radialGradient>
    </defs>
    <g fill="none" fill-rule="evenodd">
        <circle fill-opacity=".3" fill="url(#a)" cx="11" cy="11" r="11"/>
        <path d="M6.16 11.325a4.84 4.84 0 014.832-4.84.008.008 0 00.008-.008V5.7c0-.246.28-.386.478-.239l1.97 1.478a.298.298 0 010 .477l-1.97 1.477A.299.299 0 0111 8.654v-.778a.008.008 0 00-.008-.008 3.457 3.457 0 00-3.449 3.393 3.467 3.467 0 003.521 3.52 3.457 3.457 0 003.374-3.095s0 0 0 0h0a.403.403 0 01.402-.361h.57a.411.411 0 01.41.449s0 0 0 0a4.84 4.84 0 01-9.66-.45z" stroke-opacity=".168" stroke="#FFF" stroke-width=".5" fill-opacity=".7" fill="url(#b)" transform="matrix(-1 0 0 1 22 0)"/>
    </g>
</svg>
